X:191
T:Repley's Delight,or... . Ru1.191
%%VWML:RutherfordVol1-2248-p76-0p76
Z:Transcription by Village Music Project, Steve Mansfield July 2015
F:http://www.village-music-project.org.uk/
F:http://www.vwml.org/record/RutherfordVol1/2248/p76
M:6/8
L:1/8
W:The first Couple casts of[f] and turns .|
W:Cast up again and turn :| Gallop Down
W:and up again foot it and cast of[f] .|.
W:right hand and Left quite round
W:with the second Couple :|
Q:3/8=90
K:G
|:(G/A/)BB (A/B/)cc | (G/A/B)B c2e | BGG cAA | BGG G3 :|
|: GBd g3 | ecc c3 | Ace a3 | fdd d3 |
GBd g3 | ecc d2c | BGG cAA | BGG G3 :|]
T:Lasses of Dunce. Ru1.192, The
B:Rutherford's Country Dances Vol 1, 1756
Z:village music project, Steve Mansfield July 2015
M:6/8
L:1/8
W:The first Man Cast of[f] and the second Woman Casts up at the
W:same time, and turns .| The second Man and first Woman does
W:the same :| Lead Down two Couple foot it and half Figure
W:with the third Couple .|. Lead up to the top foot it and half
W:Figure with the second Couple :|
Q:3/8=90
K:D
|:f/g/ | afd ecA | d2A A2c | BGB AGF | E2E E2f/g/ |
afd ecA | d2A A2A | FDF ECE | D2D D2 :|
|: F/G/ | AFA BGB | AFA d2A | BGB AGF | E2E E2f/g/ |
afa geg | fdf ecA | B/c/dB c/d/ec | d2d d2 :|]
